X: 371
T: Bir Gönül Vardı Bende...
C: Ferit Sıdal
O: Turkey
F: http://compmusic.upf.edu/node/140
N: rast--sarki--duyek--bir_gonul--ferit_sidal
N: makam= rast
N: form= sarki
N: usul= duyek = 8/4
M: 8/4
L: 1/16
K: C _1/4B ^f  
Q: 1/4=126
%%MIDI tuningsystem comma53
z2 dd d2 e2 c3B AB c2  | z2 cc c2 d2 B3A GA B2  | \
w:   |   | 
z2 GA Bc de fg =fe dc BA  | 
w:   | 
ge2d dc2B BA AG G4  | z2 dd d2 e2 c3B AB c2  | 
w:   |   | 
z2 cc c2 d2 B3A GA B2  | z2 GA Bc de fg =fe dc BA  | 
w:   |   | 
ge2d dc2B BA AG G4  | z2 c4 c2 B2 A2 B2 c2  | \
w:   |  Bir  gö nül  *  var  | 
d2 dc B{c}B AG G6 z2  | 
w:  dı  ben *  *  *  *  *  *  de   | 
d2 g4 z2 =f2 e2 e2 d2  | c2 ed =f2 ed d6 z2  | \
w:  he nüz  aş *  kı   |  *  tat *  *  ma *  mış    | 
z2 GA Bc de fg =fe dc BA  | 
w:  SAZ  | 
ge2d dc2B BA AG G4  | z2 c4 c2 B2 A2 B2 c2  | \
w:   |  Bir  gö nül  *  var  | 
d2 dc B{c}B AG G6 z2  | 
w:  dı  ben *  *  *  *  *  *  de   | 
d2 g4 z2 =f2 e2 e2 d2  | c2 ed =f2 ed d6 z2  | \
w:  he nüz  aş *  kı   |  *  tat *  *  ma *  mış    | 
z2 GA Bc de fg =fe dc BA  | 
w:  SAZ  | 
ge2d dc2B BA Bc d4  | z2 d4 =f2 e2 d2 d2 c2  | \
w:   |  Ter te miz  *  his  | 
B2 cB c2 BA A4 B3/2A/ G2  | 
w:  *  le *  *  ri *  ne   | 
G2 G4 g2 =f2 e2 d2 c2  | BA AB c2 BA G6 z2  | \
w:  gü nah  ne dir   |  *  *  kat *  *  ma *  mış    | 
z2 GA Bc de fg =fe dc BA  | 
w:  SAZ  | 
ge2d dc2B BA Bc d4  | z2 d4 =f2 e2 d2 d2 c2  | \
w:   |  Ter te miz  *  his  | 
B2 cB c2 BA A4 B3/2A/ G2  | 
w:  *  le *  *  ri *  ne   | 
G2 G4 g2 =f2 e2 d2 c2  | BA AB c2 BA G6 z2  | \
w:  gü nah  ne dir   |  *  *  kat *  *  ma *  mış    | 
z2 GA Bc de fg =fe dc BA  | 
w:  SAZ  | 
g2 gf f_7/8e ed dc ed d4  | z4 B2 c2 d4 d4  | \
w:   |  Ar zu  duy muş   | 
d3c d2 _7/8e2 f2 g2 f2 e2  | 
w:  *  *  gü ze le   | 
d2 d4 d2 de c2 cd Bc  | AG BA B2 c2 d6 z2  | \
w:  *  kol la rın *  *  da   |  *  *  yat *  *  ma mış    | 
z2 GA Bc de fg =fe dc BA  | 
w:  SAZ  | 
g2 gf f_7/8e ed dc ed d4  | z4 B2 c2 d4 d4  | \
w:   |  Ar zu  duy muş   | 
d3c d2 _7/8e2 f2 g2 f2 e2  | 
w:  *  *  gü ze le   | 
d2 d4 d2 de c2 cd Bc  | AG BA B2 c2 d6 z2  | \
w:  *  kol la rın *  *  da   |  *  *  yat *  *  ma mış    | 
z2 GA Bc de fg =fe dc BA  | 
w:  SAZ  | 
ge2d dc2B BA Bc d4  | z2 d4 =f2 e2 d2 d2 c2  | \
w:   |  Ter te miz  *  his  | 
B2 cB c2 BA A4 B3/2A/ G2  | 
w:  *  le *  *  ri *  ne   | 
G2 G4 g2 =f2 e2 d2 c2  | BA AB c2 BA G6 z2  | |


